src/assets/images/components/section/home/SectionHomeMain/illustration-attachment-purple.svg

<svg fill="none" height="167" viewBox="0 0 167 167" width="167" xmlns="http://www.w3.org/2000/svg" xmlns:xlink="http://www.w3.org/1999/xlink"><filter id="a" color-interpolation-filters="sRGB" filterUnits="userSpaceOnUse" height="36" width="36" x="12" y="121"><feFlood flood-opacity="0" result="BackgroundImageFix"/><feColorMatrix in="SourceAlpha" result="hardAlpha" type="matrix" values="0 0 0 0 0 0 0 0 0 0 0 0 0 0 0 0 0 0 127 0"/><feOffset dy="2"/><feGaussianBlur stdDeviation="2"/><feComposite in2="hardAlpha" operator="out"/><feColorMatrix type="matrix" values="0 0 0 0 0 0 0 0 0 0 0 0 0 0 0 0 0 0 0.17 0"/><feBlend in2="BackgroundImageFix" mode="normal" result="effect1_dropShadow_946_2426"/><feBlend in="SourceGraphic" in2="effect1_dropShadow_946_2426" mode="normal" result="shape"/><feColorMatrix in="SourceAlpha" result="hardAlpha" type="matrix" values="0 0 0 0 0 0 0 0 0 0 0 0 0 0 0 0 0 0 127 0"/><feOffset dy="-1"/><feGaussianBlur stdDeviation=".5"/><feComposite in2="hardAlpha" k2="-1" k3="1" operator="arithmetic"/><feColorMatrix type="matrix" values="0 0 0 0 0 0 0 0 0 0 0 0 0 0 0 0 0 0 0.25 0"/><feBlend in2="shape" mode="normal" result="effect2_innerShadow_946_2426"/></filter><linearGradient id="b" gradientUnits="userSpaceOnUse" x1="67.9999" x2="73" y1="-109" y2="162"><stop offset="0" stop-color="#518eea"/><stop offset="1" stop-color="#644eb4"/></linearGradient><linearGradient id="c" gradientUnits="userSpaceOnUse" x1="30" x2="30" y1="113" y2="161"><stop offset="0" stop-color="#fff"/><stop offset="1" stop-color="#d9e4fe"/></linearGradient><clipPath id="d"><rect height="167" rx="16" width="167"/></clipPath><g clip-path="url(#d)"><rect fill="#644eb4" height="167" rx="16" width="167"/><path d="m69.6348-45.4662s22.6193 15.4467 31.6392 49.10795c22.533 84.09435-45.9399 119.16625-78.1273 119.05925-74.5491-.241-85.7001-88.9956 2.3394-81.3097 51.773 4.5206 98.6699 48.4823 108.8249 86.3797 6.851 25.569-2.778 44.302-10.472 58.528-44.5965 82.505 52.535 98.455 37.356 41.804-8.901-33.218-46.934-79.361-79.538-57.091-49.6264 33.902-55.2051 128.973-55.2051 128.973 31.562-32.205 88.5371-14.207 78.0591 37.164-3.278 16.079-9.0675 25.101 3.313 71.307 23.506 87.724 114.774 51.957 94.62-23.258-23.874-89.1-164.5789-42.619-142.4654 39.91 13.3389 49.781 70.7184 59.91 109.3024 39.647 25.197-12.911 55.302-.121 63.448 30.282 18.927 70.635-88.607 46.675-123.159 44.875.706 26.964 35.825 79.504 7.853 99.581 27.823-11.112 144.23-36.473 160.671 24.885 5.2 19.406-2.544 36.051-11.39 51.043-49.851 91.101 51.347 101.228 36.565 46.061-30.963-115.557-170.467-69.989-147.527 15.626 7.594 28.339 33.713 84.436 174.491 81.89l68.506-1.058" stroke="url(#b)" stroke-linecap="round" stroke-linejoin="round" stroke-width="30"/><rect fill="url(#c)" fill-opacity=".36" height="48" rx="12" width="48" x="6" y="113"/><g filter="url(#a)"><path d="m38.2662 137.579-8.645 8.645c-2.2024 2.214-5.1635 2.006-7.0558.09-1.9062-1.892-2.112-4.832.0926-7.046l11.8319-11.822c1.2949-1.293 3.2184-1.523 4.4801-.269 1.2562 1.276 1.0244 3.185-.2609 4.48l-11.6046 11.611c-.5194.537-1.1487.38-1.507.024-.3542-.366-.5013-.976.0159-1.515l8.1012-8.08c.4064-.418.4277-1.018.033-1.41-.3925-.381-.9947-.362-1.4011.044l-8.1267 8.127c-1.2543 1.254-1.2011 3.184-.0895 4.293 1.2096 1.21 3.0368 1.184 4.3008-.08l11.6599-11.659c2.2631-2.264 2.182-5.246.1938-7.234-1.9413-1.939-4.9722-2.069-7.2354.192l-11.8968 11.913c-2.9642 2.964-2.7542 7.223-.0628 9.916 2.6955 2.682 6.9546 2.894 9.9187-.06l8.7077-8.708c.3926-.386.3884-1.106-.0159-1.476-.3863-.414-1.0277-.369-1.4341.024z" fill="#fff"/></g></g></svg>

<svg width="167" height="167" viewBox="0 0 167 167" fill="none" xmlns="http://www.w3.org/2000/svg">
<g clip-path="url(#clip0_946_2426)">
<rect width="167" height="167" rx="16" fill="#644EB4"/>
<path d="M69.6348 -45.4662C69.6348 -45.4662 92.2541 -30.0195 101.274 3.64175C123.807 87.7361 55.3341 122.808 23.1467 122.701C-51.4024 122.46 -62.5534 33.7054 25.4861 41.3913C77.2591 45.9119 124.156 89.8736 134.311 127.771C141.162 153.34 131.533 172.073 123.839 186.299C79.2425 268.804 176.374 284.754 161.195 228.103C152.294 194.885 114.261 148.742 81.657 171.012C32.0306 204.914 26.4519 299.985 26.4519 299.985C58.0139 267.78 114.989 285.778 104.511 337.149C101.233 353.228 95.4435 362.25 107.824 408.456C131.33 496.18 222.598 460.413 202.444 385.198C178.57 296.098 37.8651 342.579 59.9786 425.108C73.3175 474.889 130.697 485.018 169.281 464.755C194.478 451.844 224.583 464.634 232.729 495.037C251.656 565.672 144.122 541.712 109.57 539.912C110.276 566.876 145.395 619.416 117.423 639.493C145.246 628.381 261.653 603.02 278.094 664.378C283.294 683.784 275.55 700.429 266.704 715.421C216.853 806.522 318.051 816.649 303.269 761.482C272.306 645.925 132.802 691.493 155.742 777.108C163.336 805.447 189.455 861.544 330.233 858.998L398.739 857.94" stroke="url(#paint0_linear_946_2426)" stroke-width="30" stroke-linecap="round" stroke-linejoin="round"/>
<rect x="6" y="113" width="48" height="48" rx="12" fill="url(#paint1_linear_946_2426)" fill-opacity="0.36"/>
<g filter="url(#filter0_di_946_2426)">
<path d="M38.2662 137.579L29.6212 146.224C27.4188 148.438 24.4577 148.23 22.5654 146.314C20.6592 144.422 20.4534 141.482 22.658 139.268L34.4899 127.446C35.7848 126.153 37.7083 125.923 38.97 127.177C40.2262 128.453 39.9944 130.362 38.7091 131.657L27.1045 143.268C26.5851 143.805 25.9558 143.648 25.5975 143.292C25.2433 142.926 25.0962 142.316 25.6134 141.777L33.7146 133.697C34.121 133.279 34.1423 132.679 33.7476 132.287C33.3551 131.906 32.7529 131.925 32.3465 132.331L24.2198 140.458C22.9655 141.712 23.0187 143.642 24.1303 144.751C25.3399 145.961 27.1671 145.935 28.4311 144.671L40.091 133.012C42.3541 130.748 42.273 127.766 40.2848 125.778C38.3435 123.839 35.3126 123.709 33.0494 125.97L21.1526 137.883C18.1884 140.847 18.3984 145.106 21.0898 147.799C23.7853 150.481 28.0444 150.693 31.0085 147.739L39.7162 139.031C40.1088 138.645 40.1046 137.925 39.7003 137.555C39.314 137.141 38.6726 137.186 38.2662 137.579Z" fill="white"/>
</g>
</g>
<defs>
<filter id="filter0_di_946_2426" x="12" y="121" width="36" height="36" filterUnits="userSpaceOnUse" color-interpolation-filters="sRGB">
<feFlood flood-opacity="0" result="BackgroundImageFix"/>
<feColorMatrix in="SourceAlpha" type="matrix" values="0 0 0 0 0 0 0 0 0 0 0 0 0 0 0 0 0 0 127 0" result="hardAlpha"/>
<feOffset dy="2"/>
<feGaussianBlur stdDeviation="2"/>
<feComposite in2="hardAlpha" operator="out"/>
<feColorMatrix type="matrix" values="0 0 0 0 0 0 0 0 0 0 0 0 0 0 0 0 0 0 0.17 0"/>
<feBlend mode="normal" in2="BackgroundImageFix" result="effect1_dropShadow_946_2426"/>
<feBlend mode="normal" in="SourceGraphic" in2="effect1_dropShadow_946_2426" result="shape"/>
<feColorMatrix in="SourceAlpha" type="matrix" values="0 0 0 0 0 0 0 0 0 0 0 0 0 0 0 0 0 0 127 0" result="hardAlpha"/>
<feOffset dy="-1"/>
<feGaussianBlur stdDeviation="0.5"/>
<feComposite in2="hardAlpha" operator="arithmetic" k2="-1" k3="1"/>
<feColorMatrix type="matrix" values="0 0 0 0 0 0 0 0 0 0 0 0 0 0 0 0 0 0 0.25 0"/>
<feBlend mode="normal" in2="shape" result="effect2_innerShadow_946_2426"/>
</filter>
<linearGradient id="paint0_linear_946_2426" x1="67.9999" y1="-109" x2="73" y2="162" gradientUnits="userSpaceOnUse">
<stop stop-color="#518EEA"/>
<stop offset="1" stop-color="#644EB4"/>
</linearGradient>
<linearGradient id="paint1_linear_946_2426" x1="30" y1="113" x2="30" y2="161" gradientUnits="userSpaceOnUse">
<stop stop-color="white"/>
<stop offset="1" stop-color="#D9E4FE"/>
</linearGradient>
<clipPath id="clip0_946_2426">
<rect width="167" height="167" rx="16" fill="white"/>
</clipPath>
</defs>
</svg>
